categories/32/applications-internet.svg

<?xml version="1.0" encoding="UTF-8" standalone="no"?>
<!-- Created with Inkscape (http://www.inkscape.org/) -->

<svg
   xmlns:dc="http://purl.org/dc/elements/1.1/"
   xmlns:cc="http://creativecommons.org/ns#"
   xmlns:rdf="http://www.w3.org/1999/02/22-rdf-syntax-ns#"
   xmlns:svg="http://www.w3.org/2000/svg"
   xmlns="http://www.w3.org/2000/svg"
   xmlns:xlink="http://www.w3.org/1999/xlink"
   xmlns:inkscape="http://www.inkscape.org/namespaces/inkscape"
   version="1.0"
   width="32"
   height="32"
   id="svg2514">
  <metadata
     id="metadata30">
    <rdf:RDF>
      <cc:Work
         rdf:about="">
        <dc:format>image/svg+xml</dc:format>
        <dc:type
           rdf:resource="http://purl.org/dc/dcmitype/StillImage" />
      </cc:Work>
    </rdf:RDF>
  </metadata>
  <defs
     id="defs2516">
    <linearGradient
       id="linearGradient8838">
      <stop
         id="stop8840"
         style="stop-color:#000000;stop-opacity:1"
         offset="0" />
      <stop
         id="stop8842"
         style="stop-color:#000000;stop-opacity:0"
         offset="1" />
    </linearGradient>
    <radialGradient
       cx="62.625"
       cy="4.625"
       r="10.625"
       fx="62.625"
       fy="4.625"
       id="radialGradient2502"
       xlink:href="#linearGradient8838"
       gradientUnits="userSpaceOnUse"
       gradientTransform="matrix(1.5058824,0,0,0.37647,-78.305888,26.258824)" />
    <linearGradient
       id="linearGradient3707-319-631">
      <stop
         id="stop4637"
         style="stop-color:#254b6d;stop-opacity:1"
         offset="0" />
      <stop
         id="stop4639"
         style="stop-color:#415b73;stop-opacity:1"
         offset="0.5" />
      <stop
         id="stop4641"
         style="stop-color:#6195b5;stop-opacity:1"
         offset="1" />
    </linearGradient>
    <linearGradient
       x1="20"
       y1="43"
       x2="20"
       y2="2.6887112"
       id="linearGradient2512"
       xlink:href="#linearGradient3707-319-631"
       gradientUnits="userSpaceOnUse"
       gradientTransform="matrix(0.7287353,0,0,0.7287187,-1.7793089,-1.1992627)" />
    <linearGradient
       id="linearGradient2867-449-88-871-390-598-476-591-434-148">
      <stop
         id="stop4627"
         style="stop-color:#51cfee;stop-opacity:1"
         offset="0" />
      <stop
         id="stop4629"
         style="stop-color:#49a3d2;stop-opacity:1"
         offset="0.26238" />
      <stop
         id="stop4631"
         style="stop-color:#3470b4;stop-opacity:1"
         offset="0.704952" />
      <stop
         id="stop4633"
         style="stop-color:#273567;stop-opacity:1"
         offset="1" />
    </linearGradient>
    <radialGradient
       cx="61.240059"
       cy="-8.7256308"
       r="9.7552834"
       fx="61.240059"
       fy="-8.7256308"
       id="radialGradient2510"
       xlink:href="#linearGradient2867-449-88-871-390-598-476-591-434-148"
       gradientUnits="userSpaceOnUse"
       gradientTransform="matrix(0,2.6199957,-2.6199944,0,-6.860981,-154.87766)" />
    <linearGradient
       id="linearGradient4873">
      <stop
         id="stop4875"
         style="stop-color:#ffffff;stop-opacity:1"
         offset="0" />
      <stop
         id="stop4877"
         style="stop-color:#ffffff;stop-opacity:0"
         offset="1" />
    </linearGradient>
    <linearGradient
       x1="63.397362"
       y1="-12.489107"
       x2="63.397362"
       y2="5.4675598"
       id="linearGradient2494"
       xlink:href="#linearGradient4873"
       gradientUnits="userSpaceOnUse"
       gradientTransform="matrix(1.5436509,0,0,1.5436158,-80.015712,21.419381)" />
  </defs>
  <g
     id="layer1">
    <path
       d="m 31.999998,28 c 0,2.209139 -7.163445,4 -16.000001,4 C 7.1634417,32 -3.2e-6,30.209139 -3.2e-6,28 c 0,-2.209139 7.1634449,-4 16.0000002,-4 8.836556,0 16.000001,1.790861 16.000001,4 l 0,0 z"
       inkscape:connector-curvature="0"
       id="path8836"
       style="opacity:0.3;fill:url(#radialGradient2502);fill-opacity:1;fill-rule:evenodd;stroke:none;stroke-width:0.99999988;marker:none;visibility:visible;display:inline;overflow:visible" />
    <path
       d="M 30.500275,15.999349 C 30.500275,24.007811 24.007864,30.5 16.00032,30.5 7.9920431,30.5 1.4999998,24.007737 1.4999998,15.999349 c 0,-8.0080959 6.4920433,-14.4996245 14.5003202,-14.4996245 8.007544,0 14.499955,6.4915286 14.499955,14.4996245 l 0,0 z"
       inkscape:connector-curvature="0"
       id="path6495"
       style="fill:url(#radialGradient2510);fill-opacity:1;fill-rule:nonzero;stroke:url(#linearGradient2512);stroke-width:1.00000012;stroke-miterlimit:4;stroke-dasharray:none" />
    <path
       d="m 16.323267,1.9999996 -1.740674,0.2009126 -1.914744,0.5273961 c 0.163102,-0.057657 0.328334,-0.1205946 0.497336,-0.1757987 l -0.223801,-0.4018255 -0.746002,0.1255704 -0.373004,0.3515974 -0.571936,0.075342 -0.522202,0.251141 -0.248667,0.1255704 -0.0746,0.1004563 -0.373001,0.075343 -0.2237993,0.4771678 -0.2984039,-0.6027384 -0.099466,0.2511411 0.049737,0.6780805 -0.472469,0.4018255 -0.2735342,0.7283089 0.5719368,0 L 9.5097723,4.712322 9.5843738,4.5365232 C 9.8358492,4.3569171 10.074249,4.156895 10.330377,3.9840132 l 0.596802,0.2009127 c 0.388563,0.2666136 0.779856,0.5374426 1.16874,0.8036511 L 12.667849,4.4611809 12.021313,4.1849259 11.722912,3.5821876 10.628774,3.4566171 10.603906,3.3310467 11.076374,3.4315031 11.34991,3.1552478 11.946711,3.0296774 c 0.141232,-0.069371 0.280164,-0.1193362 0.422736,-0.1757986 l -0.373003,0.3515973 1.342807,0.9292217 0,0.5525101 -0.522203,0.527396 0.696271,1.4063905 0.472468,-0.2762571 0.596805,-0.9292205 C 15.421651,5.153524 16.177867,4.8486597 16.969804,4.486295 L 16.920068,4.8378924 17.317934,5.1141475 18.014206,4.6369796 17.66607,4.2351542 17.1936,4.5114091 17.044399,4.4611819 c 0.03427,-0.015816 0.06505,-0.034152 0.09947,-0.050227 L 17.840142,2.6027378 16.323267,1.9999996 z m -6.8134992,2.7123224 0.5719362,0.4018255 0.472469,0 0,-0.4771679 -0.5719349,-0.2511409 -0.4724703,0.3264833 0,0 z m 13.2042632,-0.3264833 -1.019539,0.2511409 -0.646533,0.4269398 0,0.3767108 -1.01954,0.6529662 0.198936,0.9794517 0.596802,-0.4269412 0.373001,0.4269412 0.422737,0.2511409 0.273532,-0.7283102 -0.149198,-0.4269389 0.149198,-0.3013705 0.596804,-0.552509 0.273535,0 -0.273535,0.6027401 0,0.5525083 c 0.245986,-0.067623 0.494274,-0.09396 0.746004,-0.1255715 l -0.69627,0.502284 -0.04974,0.3013675 -0.795738,0.6780821 -0.820604,-0.2009143 0,-0.4771678 -0.373001,0.2511416 0.174067,0.4269405 -0.596802,0 -0.323269,0.5525099 -0.397867,0.4520538 -0.721136,0.1506841 0.422734,0.4269399 0.09947,0.4269398 -0.522201,0 -0.696271,0.3767106 0,1.105019 0.323266,0 0.298403,0.326484 0.671403,-0.326484 0.248667,-0.678081 0.497336,-0.301369 0.09947,-0.25114 0.795736,-0.200913 0.447602,0.502282 0.47247,0.25114 -0.273537,0.552511 0.422739,-0.12557 0.223798,-0.552511 -0.547067,-0.627852 0.223801,0 0.547069,0.452053 0.09947,0.60274 0.472467,0.55251 0.124336,-0.803651 0.248668,-0.125572 c 0.264691,0.277516 0.473333,0.616898 0.696269,0.929223 l 0.820604,0.05023 0.472468,0.30137 -0.223799,0.326482 -0.472469,0.426941 -0.696272,0 -0.92007,-0.301367 -0.472468,0.05023 -0.348136,0.401826 -0.994672,-1.004565 -0.696269,-0.200913 -1.019539,0.125571 -0.895203,0.251141 c -0.510679,0.584708 -1.033523,1.175858 -1.516876,1.783103 l -0.571936,1.406387 0.273537,0.301369 -0.497337,0.728311 0.54707,1.280817 c 0.455219,0.520072 0.913115,1.036633 1.367672,1.557074 l 0.671404,-0.577624 0.273535,0.351599 0.721137,-0.477169 0.248667,0.276255 0.721137,0 0.422736,0.477168 -0.248668,0.85388 0.497335,0.577624 -0.02487,1.004562 0.373001,0.728311 -0.273534,0.627851 c -0.02667,0.450302 -0.04974,0.880674 -0.04974,1.331047 0.219401,0.610146 0.439365,1.218794 0.646538,1.83333 l 0.149201,0.979448 0,0.502283 0.397867,0 0.571937,-0.376712 0.69627,0 1.044405,-1.180362 -0.124335,-0.401827 0.696273,-0.62785 -0.522206,-0.577624 0.621671,-0.502282 0.596802,-0.376713 0.273536,-0.301369 -0.174068,-0.67808 c 0,-0.570873 2e-6,-1.13681 0,-1.707759 l 0.47247,-1.05479 0.596801,-0.652968 0.646537,-1.607303 0,-0.42694 c -0.321736,0.04093 -0.630124,0.07784 -0.944938,0.100458 l 0.646537,-0.652967 0.895203,-0.602738 0.472472,-0.55251 0,-0.602738 c -0.107162,-0.2041 -0.215378,-0.423754 -0.323272,-0.627852 l -0.422735,0.50228 -0.323268,-0.376709 -0.472471,-0.376711 0,-0.778537 0.547071,0.627851 0.621671,-0.07534 c 0.280453,0.257135 0.549749,0.485775 0.795735,0.778538 L 30,13.904082 C 30,13.417408 29.457262,11.014844 28.284192,8.9817187 27.111121,6.9492625 25.05151,5.0890334 25.051511,5.0890334 L 24.902309,5.3652885 24.355241,5.9680269 23.65897,5.239718 l 0.696271,0 L 24.678508,4.8881207 23.385435,4.6369796 22.714031,4.3858387 z M 7.7690926,4.712322 7.5204254,5.3652885 c 0,0 -0.4353566,0.07259 -0.5470684,0.1004566 C 5.5466804,6.7934993 2.6697048,9.673454 2,15.084445 c 0.026517,0.125453 0.472469,0.853878 0.472469,0.853878 l 1.0941383,0.652966 1.094139,0.301368 0.4724691,0.577626 0.7211364,0.55251 0.4227351,-0.07534 0.2984019,0.150684 0,0.100455 -0.397869,1.130134 -0.323268,0.47717 0.099467,0.226026 -0.248668,0.904108 0.9200711,1.707758 0.9449381,0.828765 0.4227344,0.602739 -0.049737,1.255704 0.2984019,0.703194 -0.2984019,1.356162 c 0,0 -0.039819,-0.01115 0,0.12557 0.040172,0.136789 1.6622642,1.056976 1.7655406,0.97945 0.1029233,-0.07897 0.1989353,-0.150686 0.1989353,-0.150686 l -0.099467,-0.301367 0.4227351,-0.401825 0.1492,-0.42694 0.671404,-0.226029 0.522202,-1.305931 -0.149201,-0.351598 0.348135,-0.552511 0.795738,-0.175798 0.397869,-0.954335 -0.09947,-1.180364 0.621671,-0.878992 0.09947,-0.904107 c -0.85296,-0.427186 -1.689811,-0.866115 -2.53641,-1.305934 L 10.628771,18.55019 9.8578997,18.374391 9.4351648,17.244255 8.4156266,17.369827 7.5204217,16.71686 l -0.9449374,0.828765 0,0.125571 C 6.2924552,17.588691 5.957167,17.576549 5.7051522,17.420055 l -0.1989341,-0.602738 0,-0.652968 -0.6465361,0.07534 c 0.05203,-0.415924 0.1216761,-0.839853 0.1740664,-1.255705 l -0.3730021,0 -0.3730019,0.477168 -0.3481351,0.1758 -0.5222021,-0.301369 -0.049734,-0.652969 0.099467,-0.703193 0.7708704,-0.60274 0.6216699,0 0.1243341,-0.351596 0.7708701,0.175796 0.5719361,0.728311 0.099467,-1.205477 L 7.4209591,11.894955 7.7690934,11.01596 8.5150981,10.714592 8.9129663,10.111853 9.8579046,9.9360538 10.330373,9.2328589 c -0.4676486,0 -0.9497574,0 -1.4174067,0 l 0.8952054,-0.4269397 0.6216663,0 L 11.225577,8.529665 11.374778,9.3082018 11.722913,8.7556911 11.325044,8.4794362 11.424512,8.152954 11.101244,7.8515835 10.753107,7.7511274 10.852576,7.3744164 10.57904,6.8470213 9.9573712,7.0981615 10.056838,6.6209944 9.3357015,6.1940539 8.763766,7.1986175 8.8135029,7.5502153 8.2415676,7.8013563 7.8934325,8.579893 7.7193654,7.8515835 6.7495603,7.4497584 6.5754931,6.8972486 7.8934325,6.1438258 8.4653679,5.5913153 8.5151047,4.9383489 8.1918366,4.7625501 7.7691007,4.7123229 l -8.1e-6,-9e-7 z m 10.6678504,1.2054785 0,0.4018228 0.223803,0.2511417 0,0.6027385 -0.124335,0.8036507 0.646537,-0.1255707 0.47247,-0.4771671 -0.422736,-0.4018265 C 19.095593,6.6039003 18.956659,6.2714218 18.785079,5.9178005 l -0.348136,0 z m -0.547069,0.8036484 -0.397868,0.1255724 0.09947,0.728308 0.522203,-0.2762572 -0.223803,-0.5776232 0,0 z m 7.285969,6.6050091 0.596804,0.703192 0.721136,1.557076 0.4476,0.502281 -0.223798,0.527399 0.397868,0.477166 c -0.182585,0.0122 -0.359405,0.02512 -0.547069,0.02512 -0.340918,-0.723502 -0.610727,-1.453143 -0.870338,-2.210042 l -0.447602,-0.502282 -0.248668,-0.904107 0.174067,-0.175798 0,-3e-6 z"
       inkscape:connector-curvature="0"
       id="path6534"
       style="opacity:0.4;fill:#000000;fill-opacity:1;fill-rule:nonzero;stroke:none" />
    <path
       d="M 29.5,15.999522 C 29.5,23.455607 23.455399,29.5 16.000172,29.5 8.5442598,29.5 2.5,23.455539 2.5,15.999522 2.5,8.5437822 8.5442598,2.5000011 16.000172,2.5000011 23.455399,2.5000011 29.5,8.5437822 29.5,15.999522 l 0,0 z"
       inkscape:connector-curvature="0"
       id="path8655"
       style="opacity:0.4;fill:none;stroke:url(#linearGradient2494);stroke-width:1;stroke-miterlimit:4;stroke-opacity:1;stroke-dasharray:none" />
  </g>
</svg>

<?xml version="1.0" encoding="UTF-8" standalone="no"?>
<!-- Created with Inkscape (http://www.inkscape.org/) -->
<svg
   xmlns:svg="http://www.w3.org/2000/svg"
   xmlns="http://www.w3.org/2000/svg"
   xmlns:xlink="http://www.w3.org/1999/xlink"
   version="1.0"
   width="32"
   height="32"
   id="svg2514">
  <defs
     id="defs2516">
    <linearGradient
       id="linearGradient8838">
      <stop
         id="stop8840"
         style="stop-color:#000000;stop-opacity:1"
         offset="0" />
      <stop
         id="stop8842"
         style="stop-color:#000000;stop-opacity:0"
         offset="1" />
    </linearGradient>
    <radialGradient
       cx="62.625"
       cy="4.625"
       r="10.625"
       fx="62.625"
       fy="4.625"
       id="radialGradient2502"
       xlink:href="#linearGradient8838"
       gradientUnits="userSpaceOnUse"
       gradientTransform="matrix(1.5058824,0,0,0.37647,-78.305888,26.258824)" />
    <linearGradient
       id="linearGradient3707-319-631">
      <stop
         id="stop4637"
         style="stop-color:#254b6d;stop-opacity:1"
         offset="0" />
      <stop
         id="stop4639"
         style="stop-color:#415b73;stop-opacity:1"
         offset="0.5" />
      <stop
         id="stop4641"
         style="stop-color:#6195b5;stop-opacity:1"
         offset="1" />
    </linearGradient>
    <linearGradient
       x1="20"
       y1="43"
       x2="20"
       y2="2.6887112"
       id="linearGradient2512"
       xlink:href="#linearGradient3707-319-631"
       gradientUnits="userSpaceOnUse"
       gradientTransform="matrix(0.7287353,0,0,0.7287187,-1.7793089,-1.1992627)" />
    <linearGradient
       id="linearGradient2867-449-88-871-390-598-476-591-434-148">
      <stop
         id="stop4627"
         style="stop-color:#51cfee;stop-opacity:1"
         offset="0" />
      <stop
         id="stop4629"
         style="stop-color:#49a3d2;stop-opacity:1"
         offset="0.26238" />
      <stop
         id="stop4631"
         style="stop-color:#3470b4;stop-opacity:1"
         offset="0.704952" />
      <stop
         id="stop4633"
         style="stop-color:#273567;stop-opacity:1"
         offset="1" />
    </linearGradient>
    <radialGradient
       cx="61.240059"
       cy="-8.7256308"
       r="9.7552834"
       fx="61.240059"
       fy="-8.7256308"
       id="radialGradient2510"
       xlink:href="#linearGradient2867-449-88-871-390-598-476-591-434-148"
       gradientUnits="userSpaceOnUse"
       gradientTransform="matrix(0,2.6199957,-2.6199944,0,-6.860981,-154.87766)" />
    <linearGradient
       id="linearGradient4873">
      <stop
         id="stop4875"
         style="stop-color:#ffffff;stop-opacity:1"
         offset="0" />
      <stop
         id="stop4877"
         style="stop-color:#ffffff;stop-opacity:0"
         offset="1" />
    </linearGradient>
    <linearGradient
       x1="63.397362"
       y1="-12.489107"
       x2="63.397362"
       y2="5.4675598"
       id="linearGradient2494"
       xlink:href="#linearGradient4873"
       gradientUnits="userSpaceOnUse"
       gradientTransform="matrix(1.5436509,0,0,1.5436158,-80.015712,21.419381)" />
  </defs>
  <g
     id="layer1">
    <path
       d="M 31.999998,28 C 31.999998,30.209139 24.836553,32 15.999997,32 C 7.1634417,32 -3.2e-06,30.209139 -3.2e-06,28 C -3.2e-06,25.790861 7.1634417,24 15.999997,24 C 24.836553,24 31.999998,25.790861 31.999998,28 L 31.999998,28 z"
       id="path8836"
       style="opacity:0.3;fill:url(#radialGradient2502);fill-opacity:1;fill-rule:evenodd;stroke:none;stroke-width:0.99999988;stroke-linecap:butt;stroke-linejoin:round;marker:none;marker-start:none;marker-mid:none;marker-end:none;stroke-miterlimit:4;stroke-dasharray:none;stroke-dashoffset:0;stroke-opacity:1;visibility:visible;display:inline;overflow:visible" />
    <path
       d="M 30.500275,15.999349 C 30.500275,24.007811 24.007864,30.5 16.00032,30.5 C 7.9920431,30.5 1.4999998,24.007737 1.4999998,15.999349 C 1.4999998,7.9912531 7.9920431,1.4997245 16.00032,1.4997245 C 24.007864,1.4997245 30.500275,7.9912531 30.500275,15.999349 L 30.500275,15.999349 z"
       id="path6495"
       style="fill:url(#radialGradient2510);fill-opacity:1;fill-rule:nonzero;stroke:url(#linearGradient2512);stroke-width:1.00000012;stroke-miterlimit:4;stroke-dasharray:none" />
    <path
       d="M 16.323267,1.9999996 L 14.582593,2.2009122 L 12.667849,2.7283083 C 12.830951,2.6706509 12.996183,2.6077137 13.165185,2.5525096 L 12.941384,2.1506841 L 12.195382,2.2762545 L 11.822378,2.6278519 L 11.250442,2.7031942 L 10.72824,2.9543352 L 10.479573,3.0799056 L 10.404972,3.1803619 L 10.031971,3.2557044 L 9.8081717,3.7328722 L 9.5097678,3.1301338 L 9.4103022,3.3812749 L 9.4600391,4.0593554 L 8.9875701,4.4611809 L 8.7140359,5.1894898 L 9.2859727,5.1894898 L 9.5097723,4.712322 L 9.5843738,4.5365232 C 9.8358492,4.3569171 10.074249,4.156895 10.330377,3.9840132 L 10.927179,4.1849259 C 11.315742,4.4515395 11.707035,4.7223685 12.095919,4.988577 L 12.667849,4.4611809 L 12.021313,4.1849259 L 11.722912,3.5821876 L 10.628774,3.4566171 L 10.603906,3.3310467 L 11.076374,3.4315031 L 11.34991,3.1552478 L 11.946711,3.0296774 C 12.087943,2.960306 12.226875,2.9103412 12.369447,2.8538788 L 11.996444,3.2054761 L 13.339251,4.1346978 L 13.339251,4.6872079 L 12.817048,5.2146039 L 13.513319,6.6209944 L 13.985787,6.3447373 L 14.582592,5.4155168 C 15.421651,5.153524 16.177867,4.8486597 16.969804,4.486295 L 16.920068,4.8378924 L 17.317934,5.1141475 L 18.014206,4.6369796 L 17.66607,4.2351542 L 17.1936,4.5114091 L 17.044399,4.4611819 C 17.078671,4.4453662 17.109448,4.4270302 17.143867,4.4109547 L 17.840142,2.6027378 L 16.323267,1.9999996 z M 9.5097678,4.712322 L 10.081704,5.1141475 L 10.554173,5.1141475 L 10.554173,4.6369796 L 9.9822381,4.3858387 L 9.5097678,4.712322 L 9.5097678,4.712322 z M 22.714031,4.3858387 L 21.694492,4.6369796 L 21.047959,5.0639194 L 21.047959,5.4406302 L 20.028419,6.0935964 L 20.227355,7.0730481 L 20.824157,6.6461069 L 21.197158,7.0730481 L 21.619895,7.324189 L 21.893427,6.5958788 L 21.744229,6.1689399 L 21.893427,5.8675694 L 22.490231,5.3150604 L 22.763766,5.3150604 L 22.490231,5.9178005 L 22.490231,6.4703088 C 22.736217,6.4026858 22.984505,6.3763491 23.236235,6.3447373 L 22.539965,6.8470213 L 22.490228,7.1483888 L 21.69449,7.8264709 L 20.873886,7.6255566 L 20.873886,7.1483888 L 20.500885,7.3995304 L 20.674952,7.8264709 L 20.07815,7.8264709 L 19.754881,8.3789808 L 19.357014,8.8310346 L 18.635878,8.9817187 L 19.058612,9.4086586 L 19.158079,9.8355984 L 18.635878,9.8355984 L 17.939607,10.212309 L 17.939607,11.317328 L 18.262873,11.317328 L 18.561276,11.643812 L 19.232679,11.317328 L 19.481346,10.639247 L 19.978682,10.337878 L 20.07815,10.086738 L 20.873886,9.885825 L 21.321488,10.388107 L 21.793958,10.639247 L 21.520421,11.191758 L 21.94316,11.066188 L 22.166958,10.513677 L 21.619891,9.885825 L 21.843692,9.885825 L 22.390761,10.337878 L 22.490228,10.940618 L 22.962695,11.493128 L 23.087031,10.689477 L 23.335699,10.563905 C 23.60039,10.841421 23.809032,11.180803 24.031968,11.493128 L 24.852572,11.54336 L 25.32504,11.84473 L 25.101241,12.171212 L 24.628772,12.598153 L 23.9325,12.598153 L 23.01243,12.296786 L 22.539962,12.347018 L 22.191826,12.748844 L 21.197154,11.744279 L 20.500885,11.543366 L 19.481346,11.668937 L 18.586143,11.920078 C 18.075464,12.504786 17.55262,13.095936 17.069267,13.703181 L 16.497331,15.109568 L 16.770868,15.410937 L 16.273531,16.139248 L 16.820601,17.420065 C 17.27582,17.940137 17.733716,18.456698 18.188273,18.977139 L 18.859677,18.399515 L 19.133212,18.751114 L 19.854349,18.273945 L 20.103016,18.5502 L 20.824153,18.5502 L 21.246889,19.027368 L 20.998221,19.881248 L 21.495556,20.458872 L 21.470688,21.463434 L 21.843689,22.191745 L 21.570155,22.819596 C 21.543488,23.269898 21.520417,23.70027 21.520417,24.150643 C 21.739818,24.760789 21.959782,25.369437 22.166955,25.983973 L 22.316156,26.963421 L 22.316156,27.465704 L 22.714023,27.465704 L 23.28596,27.088992 L 23.98223,27.088992 L 25.026635,25.90863 L 24.9023,25.506803 L 25.598573,24.878953 L 25.076367,24.301329 L 25.698038,23.799047 L 26.29484,23.422334 L 26.568376,23.120965 L 26.394308,22.442885 C 26.394308,21.872012 26.39431,21.306075 26.394308,20.735126 L 26.866778,19.680336 L 27.463579,19.027368 L 28.110116,17.420065 L 28.110116,16.993125 C 27.78838,17.034057 27.479992,17.070964 27.165178,17.093583 L 27.811715,16.440616 L 28.706918,15.837878 L 29.17939,15.285368 L 29.17939,14.68263 C 29.072228,14.47853 28.964012,14.258876 28.856118,14.054778 L 28.433383,14.557058 L 28.110115,14.180349 L 27.637644,13.803638 L 27.637644,13.025101 L 28.184715,13.652952 L 28.806386,13.57761 C 29.086839,13.834745 29.356135,14.063385 29.602121,14.356148 L 30,13.904082 C 30,13.417408 29.457262,11.014844 28.284192,8.9817187 C 27.111121,6.9492625 25.05151,5.0890334 25.051511,5.0890334 L 24.902309,5.3652885 L 24.355241,5.9680269 L 23.65897,5.239718 L 24.355241,5.239718 L 24.678508,4.8881207 L 23.385435,4.6369796 L 22.714031,4.3858387 z M 7.7690926,4.712322 L 7.5204254,5.3652885 C 7.5204254,5.3652885 7.0850688,5.437879 6.973357,5.4657451 C 5.5466804,6.7934993 2.6697048,9.673454 2,15.084445 C 2.0265167,15.209898 2.472469,15.938323 2.472469,15.938323 L 3.5666073,16.591289 L 4.6607463,16.892657 L 5.1332154,17.470283 L 5.8543518,18.022793 L 6.2770869,17.947452 L 6.5754888,18.098136 L 6.5754888,18.198591 L 6.1776198,19.328725 L 5.8543518,19.805895 L 5.9538188,20.031921 L 5.7051508,20.936029 L 6.6252219,22.643787 L 7.57016,23.472552 L 7.9928944,24.075291 L 7.9431576,25.330995 L 8.2415595,26.034189 L 7.9431576,27.390351 C 7.9431576,27.390351 7.9033387,27.379201 7.9431576,27.515921 C 7.9833301,27.65271 9.6054218,28.572897 9.7086982,28.495371 C 9.8116215,28.416401 9.9076335,28.344685 9.9076335,28.344685 L 9.8081669,28.043318 L 10.230902,27.641493 L 10.380102,27.214553 L 11.051506,26.988524 L 11.573708,25.682593 L 11.424507,25.330995 L 11.772642,24.778484 L 12.56838,24.602686 L 12.966249,23.648351 L 12.86678,22.467987 L 13.488451,21.588995 L 13.587916,20.684888 C 12.734956,20.257702 11.898105,19.818773 11.051506,19.378954 L 10.628771,18.55019 L 9.8578997,18.374391 L 9.4351648,17.244255 L 8.4156266,17.369827 L 7.5204217,16.71686 L 6.5754843,17.545625 L 6.5754843,17.671196 C 6.2924552,17.588691 5.957167,17.576549 5.7051522,17.420055 L 5.5062181,16.817317 L 5.5062181,16.164349 L 4.859682,16.239692 C 4.9117118,15.823768 4.9813581,15.399839 5.0337484,14.983987 L 4.6607463,14.983987 L 4.2877444,15.461155 L 3.9396093,15.636955 L 3.4174072,15.335586 L 3.3676733,14.682617 L 3.4671402,13.979424 L 4.2380106,13.376684 L 4.8596805,13.376684 L 4.9840146,13.025088 L 5.7548847,13.200884 L 6.3268208,13.929195 L 6.4262879,12.723718 L 7.4209591,11.894955 L 7.7690934,11.01596 L 8.5150981,10.714592 L 8.9129663,10.111853 L 9.8579046,9.9360538 L 10.330373,9.2328589 C 9.8627244,9.2328589 9.3806156,9.2328589 8.9129663,9.2328589 L 9.8081717,8.8059192 L 10.429838,8.8059192 L 11.225577,8.529665 L 11.374778,9.3082018 L 11.722913,8.7556911 L 11.325044,8.4794362 L 11.424512,8.152954 L 11.101244,7.8515835 L 10.753107,7.7511274 L 10.852576,7.3744164 L 10.57904,6.8470213 L 9.9573712,7.0981615 L 10.056838,6.6209944 L 9.3357015,6.1940539 L 8.763766,7.1986175 L 8.8135029,7.5502153 L 8.2415676,7.8013563 L 7.8934325,8.579893 L 7.7193654,7.8515835 L 6.7495603,7.4497584 L 6.5754931,6.8972486 L 7.8934325,6.1438258 L 8.4653679,5.5913153 L 8.5151047,4.9383489 L 8.1918366,4.7625501 L 7.7691007,4.7123229 L 7.7690926,4.712322 z M 18.436943,5.9178005 L 18.436943,6.3196233 L 18.660746,6.570765 L 18.660746,7.1735035 L 18.536411,7.9771542 L 19.182948,7.8515835 L 19.655418,7.3744164 L 19.232682,6.9725899 C 19.095593,6.6039003 18.956659,6.2714218 18.785079,5.9178005 L 18.436943,5.9178005 z M 17.889874,6.7214489 L 17.492006,6.8470213 L 17.591474,7.5753293 L 18.113677,7.2990721 L 17.889874,6.7214489 L 17.889874,6.7214489 z M 25.175843,13.326458 L 25.772647,14.02965 L 26.493783,15.586726 L 26.941383,16.089007 L 26.717585,16.616406 L 27.115453,17.093572 C 26.932868,17.105777 26.756048,17.11869 26.568384,17.11869 C 26.227466,16.395188 25.957657,15.665547 25.698046,14.908648 L 25.250444,14.406366 L 25.001776,13.502259 L 25.175843,13.326461 L 25.175843,13.326458 z"
       id="path6534"
       style="opacity:0.4;fill:#000000;fill-opacity:1;fill-rule:nonzero;stroke:none" />
    <path
       d="M 29.5,15.999522 C 29.5,23.455607 23.455399,29.5 16.000172,29.5 C 8.5442598,29.5 2.5,23.455539 2.5,15.999522 C 2.5,8.5437822 8.5442598,2.5000011 16.000172,2.5000011 C 23.455399,2.5000011 29.5,8.5437822 29.5,15.999522 L 29.5,15.999522 z"
       id="path8655"
       style="opacity:0.4;fill:none;fill-opacity:1;fill-rule:nonzero;stroke:url(#linearGradient2494);stroke-width:1;stroke-miterlimit:4;stroke-dasharray:none;stroke-opacity:1" />
  </g>
</svg>
